assets/logo-d6a37901.svg

<svg width="214" height="40" viewBox="0 0 214 40" fill="none" xmlns="http://www.w3.org/2000/svg">
    <path d="M65.3237 19.6212V25.1109C65.0982 25.3665 64.7536 25.6408 64.29 25.9339C63.8327 26.2269 63.2469 26.4794 62.5327 26.6914C61.8185 26.8971 60.9665 27 59.9767 27C59.0808 27 58.2664 26.8566 57.5334 26.5698C56.8004 26.2768 56.1708 25.8497 55.6445 25.2886C55.1183 24.7212 54.7111 24.0292 54.4229 23.2124C54.141 22.3957 54 21.4605 54 20.4068V19.6025C54 18.5489 54.141 17.6137 54.4229 16.7969C54.7048 15.9802 55.1026 15.2912 55.6163 14.7301C56.1301 14.1628 56.7409 13.7326 57.4488 13.4395C58.1567 13.1465 58.9398 13 59.7981 13C61.0198 13 62.019 13.1964 62.7959 13.5892C63.5727 13.9757 64.1616 14.5119 64.5625 15.1977C64.9698 15.8835 65.2204 16.6722 65.3143 17.5638H62.3636C62.3009 17.1087 62.1756 16.7159 61.9877 16.3854C61.806 16.055 61.546 15.8025 61.2077 15.6279C60.8694 15.4471 60.4309 15.3567 59.8921 15.3567C59.4598 15.3567 59.0683 15.4471 58.7174 15.6279C58.3729 15.8025 58.0816 16.0675 57.8435 16.4228C57.6054 16.7782 57.4237 17.2209 57.2984 17.7508C57.1731 18.2745 57.1105 18.8855 57.1105 19.5838V20.4068C57.1105 21.1051 57.1731 21.7192 57.2984 22.2492C57.43 22.7791 57.6211 23.2218 57.8717 23.5772C58.1223 23.9263 58.4386 24.1913 58.8208 24.3721C59.2092 24.5529 59.6603 24.6433 60.174 24.6433C60.575 24.6433 60.9133 24.6121 61.1889 24.5498C61.4646 24.4812 61.6901 24.397 61.8655 24.2973C62.0409 24.1913 62.1725 24.0946 62.2602 24.0073V21.7442H59.8263V19.6212H65.3237Z" fill="black"/>
    <path d="M79.4691 19.7054V20.3133C79.4691 21.3483 79.325 22.2772 79.0369 23.1002C78.7549 23.9232 78.3509 24.6246 77.8246 25.2044C77.3046 25.7842 76.6844 26.23 75.964 26.5418C75.2498 26.8473 74.4573 27 73.5864 27C72.7156 27 71.92 26.8473 71.1995 26.5418C70.4791 26.23 69.8526 25.7842 69.3201 25.2044C68.7938 24.6246 68.3866 23.9232 68.0984 23.1002C67.8102 22.2772 67.6662 21.3483 67.6662 20.3133V19.7054C67.6662 18.6705 67.8102 17.7415 68.0984 16.9185C68.3866 16.0893 68.7907 15.3848 69.3107 14.8049C69.8369 14.2251 70.4603 13.7825 71.1807 13.477C71.9012 13.1652 72.6968 13.0094 73.5676 13.0094C74.4385 13.0094 75.2341 13.1652 75.9546 13.477C76.675 13.7825 77.2952 14.2251 77.8152 14.8049C78.3415 15.3848 78.7487 16.0893 79.0369 16.9185C79.325 17.7415 79.4691 18.6705 79.4691 19.7054ZM76.3774 20.3133V19.6867C76.3774 18.9947 76.3148 18.3837 76.1895 17.8537C76.0642 17.3175 75.8825 16.8686 75.6444 16.507C75.4064 16.1454 75.1119 15.8742 74.7611 15.6934C74.4103 15.5063 74.0125 15.4128 73.5676 15.4128C73.104 15.4128 72.7 15.5063 72.3554 15.6934C72.0108 15.8742 71.7195 16.1454 71.4814 16.507C71.2497 16.8686 71.0711 17.3175 70.9458 17.8537C70.8268 18.3837 70.7673 18.9947 70.7673 19.6867V20.3133C70.7673 20.9991 70.8268 21.6101 70.9458 22.1463C71.0711 22.6762 71.2528 23.1251 71.4908 23.493C71.7289 23.8608 72.0202 24.1383 72.3648 24.3253C72.7156 24.5124 73.1228 24.6059 73.5864 24.6059C74.0312 24.6059 74.4259 24.5124 74.7705 24.3253C75.1213 24.1383 75.4158 23.8608 75.6538 23.493C75.8919 23.1251 76.0705 22.6762 76.1895 22.1463C76.3148 21.6101 76.3774 20.9991 76.3774 20.3133Z" fill="black"/>
    <path d="M93.3984 19.7054V20.3133C93.3984 21.3483 93.2543 22.2772 92.9661 23.1002C92.6842 23.9232 92.2801 24.6246 91.7539 25.2044C91.2339 25.7842 90.6137 26.23 89.8932 26.5418C89.179 26.8473 88.3865 27 87.5157 27C86.6449 27 85.8493 26.8473 85.1288 26.5418C84.4083 26.23 83.7819 25.7842 83.2494 25.2044C82.7231 24.6246 82.3159 23.9232 82.0277 23.1002C81.7395 22.2772 81.5954 21.3483 81.5954 20.3133V19.7054C81.5954 18.6705 81.7395 17.7415 82.0277 16.9185C82.3159 16.0893 82.72 15.3848 83.24 14.8049C83.7662 14.2251 84.3896 13.7825 85.11 13.477C85.8305 13.1652 86.6261 13.0094 87.4969 13.0094C88.3677 13.0094 89.1634 13.1652 89.8838 13.477C90.6043 13.7825 91.2245 14.2251 91.7445 14.8049C92.2707 15.3848 92.678 16.0893 92.9661 16.9185C93.2543 17.7415 93.3984 18.6705 93.3984 19.7054ZM90.3067 20.3133V19.6867C90.3067 18.9947 90.2441 18.3837 90.1188 17.8537C89.9935 17.3175 89.8118 16.8686 89.5737 16.507C89.3357 16.1454 89.0412 15.8742 88.6904 15.6934C88.3395 15.5063 87.9417 15.4128 87.4969 15.4128C87.0333 15.4128 86.6292 15.5063 86.2847 15.6934C85.9401 15.8742 85.6488 16.1454 85.4107 16.507C85.1789 16.8686 85.0004 17.3175 84.8751 17.8537C84.7561 18.3837 84.6965 18.9947 84.6965 19.6867V20.3133C84.6965 20.9991 84.7561 21.6101 84.8751 22.1463C85.0004 22.6762 85.1821 23.1251 85.4201 23.493C85.6582 23.8608 85.9495 24.1383 86.2941 24.3253C86.6449 24.5124 87.0521 24.6059 87.5157 24.6059C87.9605 24.6059 88.3552 24.5124 88.6998 24.3253C89.0506 24.1383 89.3451 23.8608 89.5831 23.493C89.8212 23.1251 89.9997 22.6762 90.1188 22.1463C90.2441 21.6101 90.3067 20.9991 90.3067 20.3133Z" fill="black"/>
    <path d="M100.252 26.813H97.2444L97.2632 24.4562H100.252C100.934 24.4562 101.511 24.3004 101.981 23.9886C102.451 23.6707 102.808 23.2031 103.052 22.5858C103.296 21.9624 103.418 21.2049 103.418 20.3133V19.6867C103.418 19.0134 103.35 18.4211 103.212 17.9098C103.074 17.3923 102.87 16.959 102.601 16.6099C102.331 16.2607 101.996 15.9989 101.595 15.8243C101.201 15.6497 100.746 15.5625 100.233 15.5625H97.188V13.1964H100.233C101.16 13.1964 102.006 13.3523 102.77 13.664C103.541 13.9757 104.205 14.4215 104.762 15.0013C105.326 15.5812 105.761 16.267 106.068 17.0588C106.375 17.8506 106.529 18.7328 106.529 19.7054V20.3133C106.529 21.2797 106.375 22.1619 106.068 22.9599C105.761 23.7517 105.326 24.4375 104.762 25.0174C104.205 25.591 103.544 26.0336 102.779 26.3454C102.015 26.6571 101.172 26.813 100.252 26.813ZM98.9829 13.1964V26.813H95.9194V13.1964H98.9829Z" fill="black"/>
    <path d="M116.135 23.2218C116.135 22.9911 116.101 22.7853 116.032 22.6045C115.963 22.4175 115.838 22.246 115.656 22.0902C115.475 21.9343 115.218 21.7784 114.886 21.6226C114.554 21.4605 114.118 21.2953 113.579 21.1269C112.965 20.9274 112.38 20.703 111.822 20.4536C111.271 20.198 110.779 19.9018 110.347 19.5651C109.914 19.2285 109.573 18.8357 109.322 18.3868C109.078 17.9379 108.956 17.4142 108.956 16.8156C108.956 16.2358 109.084 15.7121 109.341 15.2445C109.598 14.7769 109.958 14.3779 110.422 14.0474C110.886 13.7108 111.431 13.4551 112.057 13.2806C112.684 13.0998 113.373 13.0094 114.124 13.0094C115.127 13.0094 116.007 13.187 116.765 13.5424C117.529 13.8916 118.125 14.3841 118.551 15.02C118.977 15.6497 119.19 16.3823 119.19 17.2178H116.145C116.145 16.8499 116.067 16.5257 115.91 16.2452C115.76 15.9584 115.528 15.7339 115.215 15.5718C114.908 15.4097 114.522 15.3287 114.059 15.3287C113.608 15.3287 113.229 15.3972 112.922 15.5344C112.621 15.6653 112.392 15.8461 112.236 16.0768C112.085 16.3075 112.01 16.56 112.01 16.8343C112.01 17.0525 112.066 17.2521 112.179 17.4329C112.298 17.6074 112.467 17.7727 112.687 17.9285C112.912 18.0782 113.188 18.2216 113.514 18.3587C113.839 18.4959 114.212 18.6268 114.632 18.7515C115.365 18.9822 116.013 19.2378 116.577 19.5184C117.147 19.7989 117.626 20.1169 118.015 20.4723C118.403 20.8277 118.695 21.2298 118.889 21.6787C119.089 22.1276 119.19 22.6357 119.19 23.2031C119.19 23.8078 119.071 24.344 118.832 24.8116C118.601 25.2792 118.262 25.6782 117.818 26.0087C117.379 26.3329 116.853 26.5792 116.239 26.7475C115.625 26.9158 114.939 27 114.181 27C113.492 27 112.812 26.9127 112.142 26.7381C111.471 26.5573 110.864 26.283 110.319 25.9152C109.78 25.5473 109.347 25.0797 109.022 24.5124C108.702 23.9388 108.542 23.2592 108.542 22.4736H111.606C111.606 22.8851 111.665 23.2342 111.785 23.521C111.904 23.8016 112.073 24.0292 112.292 24.2037C112.517 24.3783 112.79 24.503 113.11 24.5778C113.429 24.6526 113.786 24.69 114.181 24.69C114.638 24.69 115.008 24.6277 115.29 24.503C115.578 24.3721 115.791 24.1944 115.929 23.9699C116.067 23.7455 116.135 23.4961 116.135 23.2218Z" fill="black"/>
    <path d="M132.464 22.0808H129.024V19.7148H132.464C132.971 19.7148 133.378 19.6306 133.685 19.4623C133.998 19.2939 134.227 19.0632 134.371 18.7702C134.522 18.4709 134.597 18.1343 134.597 17.7602C134.597 17.3736 134.522 17.0151 134.371 16.6847C134.227 16.348 133.998 16.0768 133.685 15.8711C133.378 15.6653 132.971 15.5625 132.464 15.5625H130.133V26.813H127.07V13.1964H132.464C133.554 13.1964 134.487 13.3928 135.264 13.7856C136.047 14.1784 136.645 14.7177 137.059 15.4035C137.479 16.0831 137.688 16.8624 137.688 17.7415C137.688 18.6206 137.479 19.3843 137.059 20.0327C136.645 20.6811 136.047 21.1862 135.264 21.5478C134.487 21.9031 133.554 22.0808 132.464 22.0808Z" fill="black"/>
    <path d="M144.26 15.7869L140.726 26.813H137.456L142.521 13.1964H144.589L144.26 15.7869ZM147.192 26.813L143.649 15.7869L143.282 13.1964H145.378L150.462 26.813H147.192ZM147.041 21.7442V24.1009H139.909V21.7442H147.041Z" fill="black"/>
    <path d="M152.24 13.1964H157.494C158.54 13.1964 159.445 13.3523 160.209 13.664C160.98 13.9757 161.572 14.4371 161.985 15.0481C162.399 15.6591 162.606 16.4135 162.606 17.3113C162.606 18.0595 162.483 18.6954 162.239 19.2191C161.995 19.7428 161.65 20.1761 161.205 20.519C160.767 20.8619 160.253 21.1394 159.664 21.3514L158.668 21.8938H154.195L154.176 19.5277H157.503C157.96 19.5277 158.339 19.4467 158.64 19.2846C158.941 19.1225 159.166 18.8949 159.317 18.6019C159.473 18.3026 159.552 17.9535 159.552 17.5544C159.552 17.143 159.473 16.7876 159.317 16.4883C159.16 16.189 158.928 15.9615 158.621 15.8056C158.32 15.6435 157.945 15.5625 157.494 15.5625H155.304V26.813H152.24V13.1964ZM159.815 26.813L156.742 20.7622L159.974 20.7528L163.094 26.6727V26.813H159.815Z" fill="black"/>
    <path d="M171.188 13.1964V26.813H168.134V13.1964H171.188ZM175.351 13.1964V15.5625H164.055V13.1964H175.351Z" fill="black"/>
    <path d="M188.791 13.1964V26.813H185.737L180.569 18.0127V26.813H177.505V13.1964H180.569L185.747 21.9967V13.1964H188.791Z" fill="black"/>
    <path d="M201.001 24.4562V26.813H193.718V24.4562H201.001ZM194.761 13.1964V26.813H191.698V13.1964H194.761ZM200.061 18.6767V20.9586H193.718V18.6767H200.061ZM201.01 13.1964V15.5625H193.718V13.1964H201.01Z" fill="black"/>
    <path d="M203.146 13.1964H208.399C209.445 13.1964 210.351 13.3523 211.115 13.664C211.886 13.9757 212.478 14.4371 212.891 15.0481C213.305 15.6591 213.511 16.4135 213.511 17.3113C213.511 18.0595 213.389 18.6954 213.145 19.2191C212.901 19.7428 212.556 20.1761 212.111 20.519C211.673 20.8619 211.159 21.1394 210.57 21.3514L209.574 21.8938H205.101L205.082 19.5277H208.409C208.866 19.5277 209.245 19.4467 209.546 19.2846C209.846 19.1225 210.072 18.8949 210.222 18.6019C210.379 18.3026 210.457 17.9535 210.457 17.5544C210.457 17.143 210.379 16.7876 210.222 16.4883C210.066 16.189 209.834 15.9615 209.527 15.8056C209.226 15.6435 208.85 15.5625 208.399 15.5625H206.21V26.813H203.146V13.1964ZM210.72 26.813L207.647 20.7622L210.88 20.7528L214 26.6727V26.813H210.72Z" fill="black"/>
    <rect width="40.0457" height="40" rx="4" fill="#1976D2"/>
    <path d="M19.8047 20.2319V25.6061C19.5847 25.8563 19.2487 26.1249 18.7965 26.4117C18.3504 26.6986 17.7791 26.9458 17.0825 27.1533C16.3859 27.3547 15.5549 27.4554 14.5894 27.4554C13.7156 27.4554 12.9213 27.3151 12.2063 27.0343C11.4914 26.7474 10.8773 26.3293 10.364 25.78C9.85073 25.2246 9.45355 24.5471 9.17247 23.7476C8.8975 22.948 8.76001 22.0325 8.76001 21.001V20.2136C8.76001 19.1821 8.8975 18.2666 9.17247 17.467C9.44744 16.6675 9.83546 15.993 10.3365 15.4437C10.8376 14.8883 11.4333 14.4672 12.1238 14.1803C12.8143 13.8934 13.5781 13.75 14.4153 13.75C15.6068 13.75 16.5814 13.9423 17.3391 14.3268C18.0968 14.7052 18.6712 15.2301 19.0623 15.9015C19.4595 16.5729 19.7039 17.345 19.7956 18.2178H16.9175C16.8564 17.7722 16.7342 17.3877 16.5509 17.0642C16.3737 16.7407 16.1201 16.4935 15.7901 16.3226C15.4602 16.1456 15.0324 16.0571 14.5069 16.0571C14.0853 16.0571 13.7034 16.1456 13.3612 16.3226C13.0251 16.4935 12.741 16.7529 12.5088 17.1008C12.2766 17.4487 12.0994 17.8821 11.9772 18.4009C11.855 18.9136 11.7939 19.5117 11.7939 20.1953V21.001C11.7939 21.6846 11.855 22.2858 11.9772 22.8046C12.1055 23.3234 12.2919 23.7567 12.5363 24.1046C12.7807 24.4464 13.0893 24.7058 13.462 24.8828C13.8409 25.0598 14.2808 25.1483 14.7819 25.1483C15.173 25.1483 15.5029 25.1178 15.7718 25.0568C16.0407 24.9896 16.2606 24.9072 16.4317 24.8096C16.6028 24.7058 16.7311 24.6112 16.8167 24.5258V22.3102H14.4428V20.2319H19.8047Z" fill="white"/>
    <path d="M27.1098 22.6398H24.222V20.3235H27.1098C27.6048 20.3235 28.0019 20.2411 28.3014 20.0763C28.6069 19.9115 28.8299 19.6857 28.9705 19.3988C29.1171 19.1058 29.1904 18.7762 29.1904 18.41C29.1904 18.0316 29.1171 17.6807 28.9705 17.3572C28.8299 17.0276 28.6069 16.7621 28.3014 16.5607C28.0019 16.3593 27.6048 16.2585 27.1098 16.2585H24.8367V27.2723H21.8487V13.9423H27.1098C28.173 13.9423 29.0835 14.1345 29.8412 14.519C30.605 14.9036 31.1886 15.4315 31.5919 16.1029C32.0013 16.7682 32.206 17.5311 32.206 18.3917C32.206 19.2523 32.0013 20 31.5919 20.6348C31.1886 21.2695 30.605 21.7639 29.8412 22.1179C29.0835 22.4658 28.173 22.6398 27.1098 22.6398Z" fill="white"/>
</svg>

<svg xmlns="http://www.w3.org/2000/svg" width="214" height="40" fill="none" viewBox="0 0 214 40"><path fill="#000" d="M65.324 19.621v5.49c-.226.255-.57.53-1.034.823-.457.293-1.043.545-1.757.757-.715.206-1.566.309-2.556.309-.896 0-1.71-.143-2.444-.43a5.202 5.202 0 0 1-1.889-1.281c-.526-.568-.933-1.26-1.221-2.077-.282-.816-.423-1.751-.423-2.805v-.805c0-1.053.141-1.988.423-2.805.282-.817.68-1.506 1.193-2.067a5.048 5.048 0 0 1 1.833-1.29c.708-.293 1.49-.44 2.35-.44 1.22 0 2.22.196 2.997.59.777.386 1.366.922 1.767 1.608.407.685.657 1.474.751 2.366h-2.95a3.267 3.267 0 0 0-.376-1.179 1.826 1.826 0 0 0-.78-.757c-.339-.18-.777-.271-1.316-.271-.432 0-.824.09-1.175.27-.344.175-.635.44-.873.796-.239.355-.42.798-.546 1.328-.125.523-.187 1.134-.187 1.833v.823c0 .698.062 1.312.187 1.842.132.53.323.973.574 1.328.25.35.567.614.949.795.388.18.84.271 1.353.271.401 0 .74-.03 1.015-.093a2.7 2.7 0 0 0 .676-.253c.176-.106.307-.202.395-.29v-2.263h-2.434v-2.123h5.498m14.146.084v.608c0 1.035-.145 1.964-.433 2.787-.282.823-.686 1.525-1.212 2.104a5.294 5.294 0 0 1-1.861 1.338c-.714.305-1.507.458-2.378.458-.87 0-1.666-.153-2.386-.458a5.48 5.48 0 0 1-1.88-1.338c-.526-.58-.933-1.28-1.222-2.104-.288-.823-.432-1.752-.432-2.787v-.608c0-1.034.144-1.963.432-2.786.289-.83.693-1.534 1.213-2.114a5.28 5.28 0 0 1 1.87-1.328c.72-.312 1.516-.468 2.387-.468.87 0 1.666.156 2.387.468.72.306 1.34.748 1.86 1.328.526.58.934 1.284 1.222 2.114.288.822.432 1.752.432 2.786m-3.093.608v-.626c0-.692-.062-1.303-.187-1.833-.126-.537-.308-.985-.546-1.347a2.334 2.334 0 0 0-.883-.814 2.496 2.496 0 0 0-1.193-.28c-.464 0-.868.093-1.213.28a2.36 2.36 0 0 0-.874.814c-.231.362-.41.81-.535 1.347a8.422 8.422 0 0 0-.179 1.833v.626c0 .686.06 1.297.179 1.833.125.53.307.98.545 1.347.238.368.53.645.874.832.35.187.758.28 1.221.28.445 0 .84-.093 1.185-.28a2.39 2.39 0 0 0 .883-.832c.238-.368.416-.817.535-1.347a8.091 8.091 0 0 0 .188-1.833m17.022-.608v.608c0 1.035-.144 1.964-.432 2.787-.282.823-.686 1.525-1.212 2.104a5.293 5.293 0 0 1-1.86 1.338c-.715.305-1.508.458-2.378.458-.871 0-1.667-.153-2.387-.458a5.48 5.48 0 0 1-1.88-1.338c-.526-.58-.933-1.28-1.221-2.104-.288-.823-.433-1.752-.433-2.787v-.608c0-1.034.145-1.963.433-2.786.288-.83.692-1.534 1.212-2.114a5.28 5.28 0 0 1 1.87-1.328c.72-.312 1.516-.468 2.387-.468.87 0 1.666.156 2.387.468a5.19 5.19 0 0 1 1.86 1.328c.527.58.934 1.284 1.222 2.114.288.822.432 1.752.432 2.786m-3.091.608v-.626a8.03 8.03 0 0 0-.188-1.833c-.126-.537-.307-.985-.545-1.347a2.334 2.334 0 0 0-.884-.814 2.497 2.497 0 0 0-1.193-.28c-.464 0-.868.093-1.212.28a2.352 2.352 0 0 0-.874.814c-.232.362-.41.81-.536 1.347a8.422 8.422 0 0 0-.178 1.833v.626c0 .686.06 1.297.178 1.833.125.53.307.98.545 1.347.238.368.53.645.874.832.35.187.758.28 1.222.28.444 0 .84-.093 1.184-.28a2.39 2.39 0 0 0 .883-.832c.238-.368.417-.817.536-1.347a8.091 8.091 0 0 0 .188-1.833m9.945 6.5h-3.008l.02-2.357h2.988c.682 0 1.259-.156 1.729-.467.47-.318.827-.786 1.071-1.403.244-.624.366-1.381.366-2.273v-.626c0-.674-.068-1.266-.206-1.777-.138-.518-.342-.951-.611-1.3a2.53 2.53 0 0 0-1.006-.786c-.394-.174-.849-.261-1.362-.261h-3.045v-2.367h3.045c.927 0 1.773.156 2.537.468a5.676 5.676 0 0 1 1.992 1.337 6.05 6.05 0 0 1 1.306 2.058c.307.792.461 1.674.461 2.646v.608c0 .967-.154 1.849-.461 2.647a6.05 6.05 0 0 1-1.306 2.057 5.76 5.76 0 0 1-1.983 1.328c-.764.312-1.607.468-2.527.468m-1.27-13.617v13.617H95.92V13.196h3.064m17.151 10.026c0-.23-.034-.437-.103-.617a1.252 1.252 0 0 0-.376-.515 3.423 3.423 0 0 0-.77-.467 9.554 9.554 0 0 0-1.307-.496 17.72 17.72 0 0 1-1.757-.673 7.571 7.571 0 0 1-1.475-.889 3.891 3.891 0 0 1-1.025-1.178c-.244-.45-.366-.973-.366-1.571 0-.58.128-1.104.385-1.571a3.577 3.577 0 0 1 1.081-1.198 5.078 5.078 0 0 1 1.635-.766 7.441 7.441 0 0 1 2.067-.272c1.003 0 1.883.178 2.641.533.764.35 1.36.842 1.786 1.478.426.63.639 1.362.639 2.198h-3.045a1.96 1.96 0 0 0-.235-.973 1.575 1.575 0 0 0-.695-.673c-.307-.162-.693-.243-1.156-.243-.451 0-.83.068-1.137.205-.301.131-.53.312-.686.543-.151.23-.226.483-.226.757 0 .218.056.418.169.599.119.174.288.34.508.495a5 5 0 0 0 .827.43c.325.138.698.269 1.118.393a13.53 13.53 0 0 1 1.945.767c.57.28 1.049.599 1.438.954.388.356.68.758.874 1.207.2.449.301.957.301 1.524 0 .605-.119 1.141-.358 1.609-.231.467-.57.866-1.014 1.197-.439.324-.965.57-1.579.738-.614.169-1.3.253-2.058.253a8.055 8.055 0 0 1-2.039-.262 6.04 6.04 0 0 1-1.823-.823 4.214 4.214 0 0 1-1.297-1.403c-.32-.573-.48-1.253-.48-2.038h3.064c0 .411.059.76.179 1.047.119.28.288.508.507.683.225.174.498.299.818.374a4.69 4.69 0 0 0 1.071.112c.457 0 .827-.062 1.109-.187a1.4 1.4 0 0 0 .639-.533 1.4 1.4 0 0 0 .206-.748m16.329-1.142h-3.44v-2.365h3.44c.507 0 .914-.084 1.221-.253a1.56 1.56 0 0 0 .686-.692c.151-.3.226-.636.226-1.01 0-.386-.075-.745-.226-1.075a1.807 1.807 0 0 0-.686-.814c-.307-.206-.714-.309-1.221-.309h-2.331v11.251h-3.063V13.196h5.394c1.09 0 2.023.197 2.8.59.783.392 1.381.932 1.795 1.617.42.68.629 1.46.629 2.338 0 .88-.209 1.643-.629 2.292-.414.648-1.012 1.153-1.795 1.515-.777.355-1.71.533-2.8.533m11.796-6.294-3.534 11.026h-3.27l5.065-13.617h2.068l-.329 2.59m2.932 11.026-3.543-11.026-.367-2.59h2.096l5.084 13.616zm-.151-5.069V24.1h-7.132v-2.357h7.132m5.199-8.547h5.254c1.046 0 1.951.156 2.715.468.771.312 1.363.773 1.776 1.384.414.611.621 1.365.621 2.263 0 .749-.123 1.384-.367 1.908a3.458 3.458 0 0 1-1.034 1.3 5.5 5.5 0 0 1-1.541.832l-.996.543h-4.473l-.019-2.366h3.327c.457 0 .836-.081 1.137-.243.301-.163.526-.39.677-.683.156-.3.235-.649.235-1.048 0-.411-.079-.766-.235-1.066a1.566 1.566 0 0 0-.696-.682c-.301-.162-.676-.243-1.127-.243h-2.19v11.25h-3.064zm7.575 13.617-3.073-6.05 3.232-.01 3.12 5.92v.14zm11.373-13.617v13.617h-3.054V13.196zm4.163 0v2.367h-11.296v-2.367h11.296m13.44 0v13.617h-3.054l-5.168-8.8v8.8h-3.064V13.196h3.064l5.178 8.8v-8.8h3.044m12.21 11.26v2.357h-7.283v-2.357zm-6.24-11.26v13.617h-3.063V13.196zm5.3 5.48v2.283h-6.343v-2.282h6.343m.949-5.48v2.367h-7.292v-2.367h7.292m2.136-.001h5.253c1.046 0 1.952.156 2.716.468.771.312 1.363.773 1.776 1.384.414.611.62 1.365.62 2.263 0 .749-.122 1.384-.366 1.908a3.458 3.458 0 0 1-1.034 1.3 5.5 5.5 0 0 1-1.541.832l-.996.543h-4.473l-.019-2.366h3.327c.457 0 .836-.081 1.137-.243.3-.163.526-.39.676-.683.157-.3.235-.649.235-1.048 0-.411-.078-.766-.235-1.066a1.56 1.56 0 0 0-.695-.682c-.301-.162-.677-.243-1.128-.243h-2.189v11.25h-3.064V13.196m7.574 13.617-3.073-6.05 3.233-.01 3.12 5.92v.14z"/><rect width="40.0457" height="40" fill="#1976D2" rx="4"/><path fill="#fff" d="M19.805 20.232v5.374c-.22.25-.556.519-1.008.806-.447.287-1.018.534-1.715.741-.696.202-1.527.302-2.493.302-.873 0-1.668-.14-2.383-.42a5.074 5.074 0 0 1-1.842-1.255c-.513-.555-.91-1.233-1.192-2.032-.274-.8-.412-1.716-.412-2.747v-.787c0-1.032.138-1.947.412-2.747.275-.8.663-1.474 1.164-2.023a4.922 4.922 0 0 1 1.788-1.264c.69-.287 1.454-.43 2.291-.43 1.192 0 2.166.192 2.924.577.758.378 1.332.903 1.723 1.575.397.67.642 1.443.734 2.316h-2.878a3.204 3.204 0 0 0-.367-1.154 1.783 1.783 0 0 0-.76-.741c-.33-.177-.759-.266-1.284-.266-.422 0-.804.089-1.146.266-.336.17-.62.43-.852.778-.232.348-.41.781-.532 1.3-.122.513-.183 1.11-.183 1.794v.806c0 .684.061 1.285.183 1.804.128.518.315.952.56 1.3.244.341.552.6.925.778.379.177.819.265 1.32.265.391 0 .72-.03.99-.091a2.63 2.63 0 0 0 .66-.247c.17-.104.3-.199.385-.284V22.31h-2.374v-2.078zm7.305 2.408h-2.888v-2.317h2.888c.495 0 .892-.082 1.191-.247.306-.165.529-.39.67-.677a2.18 2.18 0 0 0 .22-.989c0-.378-.074-.73-.22-1.053a1.767 1.767 0 0 0-.67-.796c-.3-.202-.696-.302-1.191-.302h-2.273v11.013h-2.988v-13.33h5.26c1.064 0 1.974.192 2.732.577.764.385 1.348.912 1.75 1.584.41.665.615 1.428.615 2.289 0 .86-.205 1.608-.614 2.243-.403.634-.987 1.129-1.75 1.483-.758.348-1.669.522-2.732.522"/></svg>
